!!!OTL: Abschied von der Wallfahrt (3-10), S. 39
!!!id: P0981
**kern
*clefG2
*k[b-e-]
*B-:
{16b-
=1
16b-
8f
8f
8f
8e-
=2
8d
8e-
4f}
=3
{8f
8b-
8b-
8dd
=4
8cc
8a
4b-}
=5
{8b-
8b-
8dd
8b-
=6
8a
8b-
8cc}
16r
=7
{16dd
=8
8dd
8cc
8b-
8dd
=9
8cc
8a
4b-}
==
*-
!!!minrhy: 16
!!!meters: 2/4 ]  ZZ[4
!!!cut: Abschied von der Wallfahrt (3-10), S. 39
!!!reg: Lothringen
!!!trd: PINCK, Louis: Verklingende Weisen, Bd3, Metz 1933
!!!rhy1:   X_X_X_X_  X_X_X__   (x2)
!!!rhy2: X_X_X_X_  X_X_X__
!!!key: P0981  16 Bb 2/4 ]  ZZ[4
!!!mod: SECHSTONSKALA DUR ?]  AMBITUS[8
!!!kad: -5121
!!!akz: -5-3_-52_1-7_32_
!!!fot: 'a__b__c__bw_
!!!for: 'a__a__av_av_
!!!fok: 'V__^a_~a_\__
!! PHRAS[VORWIEGEND VOLLTAKTIG]
!!!fkt: yyy
!! LOTH VKL
!! PR[24] 2K[6] 2G[0] 3K[6] 3G[6] 4A[9] 4Ü[0] 5A[0] 6K[0] 6G[3]
!! 7K[0] 7G[0] 8A[0] MEHR[0] SI[29] ABS[34] SR[6] SP[24]
!! ST[16] 2k[9] 2g[21] 3k[15] 3g[3] 4d[0] 4ü[0] 5d[0] 6k[0] 6g[0]
!! 7k[0] 7g[0] 8d[0] mehr[0] si[47] dm[-18] sr[29] sp[18]
!! 1F[11] 2F[63] 3F[9] 4F[0] LF[0] 2P[0] 3P[17] 4P[0] TRI[0] DF[4] AB[35]
!! TF[0] U3K[0] U3[0] U4[0] U4Ü[0] U5[0] U6K[0] U6[0] U7K[0] U7[0]
!! N1[17] N2K[0] N2[11] N3K[0] N3[17] N4[17] N4Ü[0] N5[23] N6K[0] N6[11]
!!!n7k: 0] N7[0] O1[3] O2K[0] O2[0] O3K[0] O3[0] HÖ[0
